X:16
T:Bloom of Youth
Z: id:dc-reel-16
M:C
L:1/8
K:G Major
G2DG EGDF|G2BG AEE2|G2DG EGAB|cedc BdAF|!
G2DG EGDF|G2BG AEE2|G2DG EGAB|cedc BGG2|]!
gddg eBB2|cBAc BEE2|g2d2 edBA|Bdgd BGG2|!
egg2 eBB2|cBAc BEEB|c3B cdef|gedc BdAF|]!

